X: 638
T: Adam's Nightmare
R: reel
M: 4/4
K: Adorian
|:EAAE GABA|B^cBA Bd G2-|G2 GF GBdB|dedB cBAG|
EAAE GABA|B^cBA Bd G2-|G2 GF GBdB|1 dedB EAAG:|2 dedB dega||
cege ga d2-|dBdf adfa|g3f gfed|edBA Bdeg|
cege ga d2-|dBdf adfa|g3f gfed|Bded egfg|
cege ga d2-|dBdf adfa|b3c' bagb|add/d/d dBde|
cege ga d2-|dBde dcBG|A3A2 GE2-|EGAG A4||

